icons/solid/scroll.svg

<svg width="24" height="24" viewBox="0 0 24 24" fill="none" xmlns="http://www.w3.org/2000/svg">
<rect width="24" height="24" fill="white"/>
<path fill-rule="evenodd" clip-rule="evenodd" d="M4 6C4 4.34315 5.34315 3 7 3H19C20.6569 3 22 4.34315 22 6V8C22 9.65685 20.6569 11 19 11V17C19 19.0675 17.4314 20.7686 15.4194 20.9783C14.6128 20.9154 14.0321 20.722 13.6097 20.4779C13.0985 20.1826 12.7567 19.7774 12.5194 19.3028C12.0165 18.2969 12 17.0369 12 16V15H4V6ZM2 17V18C2 19.6569 3.34315 21 5 21H11.2297C11.034 20.744 10.869 20.4741 10.7306 20.1972C10.1985 19.133 10.0537 17.9441 10.0145 17H2Z" fill="currentColor"/>
</svg>

<svg width="24" height="24" fill="none" xmlns="http://www.w3.org/2000/svg"><path fill="#fff" d="M0 0h24v24H0z"/><path fill-rule="evenodd" clip-rule="evenodd" d="M4 6a3 3 0 013-3h12a3 3 0 013 3v2a3 3 0 01-3 3v6a4 4 0 01-3.58 3.978c-.807-.063-1.388-.256-1.81-.5a2.713 2.713 0 01-1.09-1.175C12.016 18.297 12 17.037 12 16v-1H4V6zM2 17v1a3 3 0 003 3h6.23a5 5 0 01-.5-.803c-.532-1.064-.676-2.253-.716-3.197H2z" fill="currentColor"/></svg>
